svg/piggy_bank_outline.svg

<svg xmlns="http://www.w3.org/2000/svg" viewBox="0 0 24 24"><path d="M22 14h-2c0-2.4-1.8-4.4-4.5-5.4-.5.8-1.4 1.4-2.5 1.4-1.3 0-2.3-.8-2.8-1.8-.2 0-.4.1-.7.1L7 7v2.3c-1.5.9-2.6 2.2-2.9 3.7H2v4h3.1c.5.6 1.1 1.2 1.9 1.7V22h2v-2.4c.9.3 1.9.4 3 .4s2.1-.2 3-.4V22h2v-3.3c1.1-.7 2-1.6 2.5-2.7H22zm-10 4c-3.3 0-6-1.8-6-4 0-1.5 1.4-2.9 3.4-3.6.9 1 2.2 1.6 3.6 1.6 1.1 0 2.1-.3 3-1 1.3.8 2 1.9 2 3 0 2.2-2.7 4-6 4m1-15c.6 0 1 .4 1 1s-.4 1-1 1-1-.4-1-1 .4-1 1-1m0-2c-1.7 0-3 1.3-3 3s1.3 3 3 3 3-1.3 3-3-1.3-3-3-3m-3 12c0 .6-.4 1-1 1s-1-.4-1-1 .4-1 1-1 1 .4 1 1"/></svg>

<?xml version="1.0" encoding="UTF-8"?><!DOCTYPE svg PUBLIC "-//W3C//DTD SVG 1.1//EN" "http://www.w3.org/Graphics/SVG/1.1/DTD/svg11.dtd"><svg xmlns="http://www.w3.org/2000/svg" xmlns:xlink="http://www.w3.org/1999/xlink" version="1.1" id="mdi-piggy-bank-outline" width="24" height="24" viewBox="0 0 24 24"><path d="M22 14H20C20 11.6 18.2 9.6 15.5 8.6C15 9.4 14.1 10 13 10C11.7 10 10.7 9.2 10.2 8.2C10 8.2 9.8 8.3 9.5 8.3L7 7V9.3C5.5 10.2 4.4 11.5 4.1 13H2V17H5.1C5.6 17.6 6.2 18.2 7 18.7V22H9V19.6C9.9 19.9 10.9 20 12 20S14.1 19.8 15 19.6V22H17V18.7C18.1 18 19 17.1 19.5 16H22V14M12 18C8.7 18 6 16.2 6 14C6 12.5 7.4 11.1 9.4 10.4C10.3 11.4 11.6 12 13 12C14.1 12 15.1 11.7 16 11C17.3 11.8 18 12.9 18 14C18 16.2 15.3 18 12 18M13 3C13.6 3 14 3.4 14 4S13.6 5 13 5 12 4.6 12 4 12.4 3 13 3M13 1C11.3 1 10 2.3 10 4S11.3 7 13 7 16 5.7 16 4 14.7 1 13 1M10 13C10 13.6 9.6 14 9 14S8 13.6 8 13 8.4 12 9 12 10 12.4 10 13" /></svg>
